X:175 
T:Reilly's (reel)
F:file ID: cre.5/175reilly
B:CRE5.175 (Ril Ui Raghallaigh)
S:Charlie Mulvihill
Q:180
M:C
R:reel
K:Em
D|B,EEF G2FE|D2 (3FED AD (3FED|B,EEF GFGA|B2AF BGEE:|
A|B2BA Beed|B2BA BEEA|B2BA Beef|gefd Beef|
gefd edBc|dBAG FDD2|B,EEF GFGA|B2AF BGE2 ||

%%%

